X: 22139
T: Kye's
R: reel
M: 4/4
K: Gdorian
|:G,2 B,D GBdf|gfdf g2 ab|gfdg fdcA|
(3Bcd cA BGFD|GABG (3EFG AF|DGBd g3 a|
(3aba ba gbag|1 fdcA G3 G,:|2 fdcA Ggga||
|:{a}gfdf g3 a|gfdg fdcB|AFcF dFcF|ABcB A~f3|
gfdg fdcA|dcAF FG2 a|(3aba ba gbag|1 fdcA Ggga:|2 fdcA G3 G,||

